X:225
T:Elizabeth: Piano accompaniment
C:Colin Hume, 1991
L:1/4
M:3/4
%%scale 0.74
%%MIDI beat 100 95 80
%%MIDI gchordoff
%%staves 1 {(2 3) 4}
S:Colin Hume's website,  colinhume.com  - chords can also be printed below the stave.
Q:1/4=102     Not too fast
K:G
P:A
V:1
%%MIDI program 71     Clarinet
"Em"B/A/BE | "Am"c/B/cE | "D"Fdc | "G"B/A/G2 | "C"E/D/EC | "Am"A/G/AC | "B7"B,BA | "Em"G/F/E2 |
V:2 treble
%%MIDI program 48     String Ensemble 1
G/F/GE | A/G/AE | DFA | D3 | C/B,/CC | E3 | B,FF | G3 |
V:3
%%MIDI program 48     String Ensemble 1
[B,E]2 B, | [CE]2 A, | A,DE | x3 | G,2G, | C/B,/CA, | x^D^C | B,3 |
V:4 bass octave=-2
%%MIDI program 43     Contrabass
E2 F/G/ | A2 B/c/ | dDE/F/ | G3/A/B/d/ | c2B | A2G/A/ | [Bf]B^c/^d/ | e3/f/ g/a/ |
P:B
V:1
"G"B/A/Bd | "C"cE "Em"G | "D"A3/B/ c/d/ | "G"cB2 | "Em"G/F/G "Am"A | "D"FDE/F/ | "C"G3/A/ "D"F | "G"G3 |
V:2
G2G | E2E | F3/G/ A/B/ | AG2 | E2E | D3 | E2D | G3 |
V:3
D2D | C2B, | D3 | D3 | B,2C | A,3 | C2A, | !<(![B,D]3 !<)! |
V:4
g2B | c2E | DEF | G2F | E2A | D2D | C2D | GBd |
P:C
V:1
"G"gdg | "Dm"=f/e/df | "Am"ec/d/e/c/ | "G"dG2 | "G"gdg | "Dm"a/g/=fa | "C"ge/=f/g/e/ | "D"d2d/c/ |
V:2
!>(![GB]/[Ac]/[Bd][DB] | [=FA]3/ !>)![EG]/ [FA]/[GB]/ | cA/B/ c/A/ | !<(![GB]D2 !<)! | !>(![GB]/[Ac]/[Bd][DB] | [=Fd]/[Ge]/[A=f]2 !>)! | ec/d/ e/c/ | [FA]2[DA] |
V:3
x3 | x3 | AEE | x3 | x3 | x3 | cGG | x3 |
V:4
g2g | d2d | A3 | GBd | g2g | d2d | c2C | DEF |
P:D
V:1
"G"BGg/f/ | "C"e2 "Am"c/B/ | "D"AFf/e/ | "Bm"d2B/A/ | "Em"GEe/d/ | "Am"cA "A7"a/g/ | "D"fd/e/ "D7"f/d/ | "G"g3 |]
V:2
[DG]2E/D/ | CA,A/G/ | F2D/C/ || B,F,D/C/ | B,2G/F/ | ECf/e/ | d/A/ F/G/ A/F/ | [B,DG]3 |]
V:3
x3 | x3 | x3 | x3 | x3 | x3 | x3 | x3 |
V:4
G2B | c2[Ae] | [da]2[Fd] | B2d | e2[Ge] | [Ae]2[^ca] | [da][Dd][Dd] | [Gg]3 |]

